src/images/technologies/confluence.svg

<svg width="168" height="168" viewBox="0 0 168 168" fill="none" xmlns="http://www.w3.org/2000/svg">
<path d="M46.9091 104.523C46.0634 105.853 45.0968 107.424 44.3719 108.633C43.647 109.842 44.0095 111.414 45.2177 112.139L61.7695 122.294C62.9776 123.019 64.5482 122.657 65.2732 121.448C65.8772 120.36 66.7228 118.909 67.6895 117.338C74.2134 106.578 80.8584 107.787 92.6983 113.469L109.129 121.206C110.458 121.811 111.908 121.206 112.512 119.997L120.365 102.226C120.969 101.017 120.365 99.4453 119.157 98.8407C115.653 97.269 108.767 94.005 102.726 90.9827C80.3751 80.2231 61.407 80.9485 46.9091 104.523Z" fill="url(#paint0_linear_2051_2309)"/>
<path d="M121.091 64.1437C121.937 62.8138 122.903 61.2422 123.628 60.0333C124.353 58.8243 123.99 57.2527 122.782 56.5273L106.231 46.3722C105.022 45.6468 103.452 46.0095 102.727 47.2184C102.123 48.3065 101.277 49.7572 100.311 51.3289C93.7863 62.0884 87.1417 60.8795 75.3014 55.1975L58.8705 47.4602C57.5415 46.8558 56.0917 47.4602 55.4877 48.6692L47.6346 66.4405C47.0305 67.6495 47.6346 69.2212 48.8427 69.8258C52.3464 71.3975 59.233 74.6615 65.2739 77.6838C87.6247 88.3227 106.593 87.718 121.091 64.1437Z" fill="url(#paint1_linear_2051_2309)"/>
<defs>
<linearGradient id="paint0_linear_2051_2309" x1="119.968" y1="127.557" x2="69.9745" y2="98.8483" gradientUnits="userSpaceOnUse">
<stop stop-color="#0052CC"/>
<stop offset="0.9182" stop-color="#2380FB"/>
<stop offset="1" stop-color="#2684FF"/>
</linearGradient>
<linearGradient id="paint1_linear_2051_2309" x1="48.0315" y1="41.0775" x2="98.0259" y2="69.7868" gradientUnits="userSpaceOnUse">
<stop stop-color="#0052CC"/>
<stop offset="0.9182" stop-color="#2380FB"/>
<stop offset="1" stop-color="#2684FF"/>
</linearGradient>
</defs>
</svg>

<svg xmlns="http://www.w3.org/2000/svg" width="168" height="168" fill="none"><path fill="url(#a)" d="M46.91 104.523a198.1 198.1 0 0 0-2.538 4.11c-.725 1.209-.362 2.781.846 3.506l16.551 10.155c1.209.725 2.78.363 3.504-.846.604-1.088 1.45-2.539 2.416-4.11 6.524-10.76 13.17-9.551 25.01-3.869l16.43 7.737c1.329.605 2.779 0 3.383-1.209l7.853-17.771c.604-1.209 0-2.78-1.208-3.385-3.504-1.572-10.39-4.836-16.431-7.858-22.35-10.76-41.319-10.035-55.817 13.54Z"/><path fill="url(#b)" d="M121.091 64.144c.846-1.33 1.812-2.902 2.537-4.11.725-1.21.362-2.781-.846-3.507l-16.551-10.155c-1.209-.725-2.779-.362-3.504.846a112.045 112.045 0 0 1-2.416 4.11c-6.525 10.76-13.17 9.551-25.01 3.87l-16.43-7.738c-1.33-.604-2.78 0-3.383 1.21l-7.853 17.77c-.604 1.21 0 2.781 1.208 3.386 3.503 1.572 10.39 4.836 16.43 7.858 22.352 10.639 41.32 10.034 55.818-13.54Z"/><defs><linearGradient id="a" x1="119.968" x2="69.975" y1="127.557" y2="98.848" gradientUnits="userSpaceOnUse"><stop stop-color="#0052CC"/><stop offset=".918" stop-color="#2380FB"/><stop offset="1" stop-color="#2684FF"/></linearGradient><linearGradient id="b" x1="48.032" x2="98.026" y1="41.078" y2="69.787" gradientUnits="userSpaceOnUse"><stop stop-color="#0052CC"/><stop offset=".918" stop-color="#2380FB"/><stop offset="1" stop-color="#2684FF"/></linearGradient></defs></svg>
